src/assets/icons/comments.svg

<svg width="14" height="14" viewBox="0 0 14 14" fill="none" xmlns="http://www.w3.org/2000/svg">
<g id="comments">
<g clip-path="url(#clip0_156_4495)">
<path id="Vector" fill-rule="evenodd" clip-rule="evenodd" d="M0.181198 11.1902C0.298137 11.3079 0.456256 11.3713 0.617664 11.3713C0.678604 11.3713 0.738716 11.3631 0.798009 11.3458L3.32446 10.5777C3.56126 10.9978 3.85047 11.3792 4.18768 11.7164C4.67685 12.2056 5.2459 12.5893 5.88 12.857C7.12268 13.3832 8.549 13.412 9.81144 12.9426L13.2027 13.9736C13.262 13.9909 13.3221 14 13.3822 14C13.5444 14 13.7017 13.9366 13.8186 13.8197C13.9809 13.6591 14.0393 13.4219 13.9735 13.2037L12.9424 9.81245C13.1631 9.21705 13.276 8.59282 13.276 7.95295C13.276 7.23485 13.1351 6.53734 12.8568 5.88018C12.5891 5.24607 12.2054 4.67703 11.7162 4.18787C11.5295 4.00113 11.3265 3.82671 11.1098 3.6673C11.0638 3.5268 11.0116 3.38788 10.9536 3.25071C10.6859 2.61661 10.3022 2.04755 9.81299 1.55839C9.32383 1.06922 8.75478 0.68547 8.12068 0.417829C6.80718 -0.138865 5.29191 -0.139688 3.97594 0.417829C3.34348 0.684647 2.77444 1.0684 2.2828 1.55839C1.79363 2.0492 1.40988 2.61825 1.14307 3.25071C0.864718 3.90787 0.723896 4.60538 0.723896 5.32349C0.723896 5.965 0.835892 6.5884 1.05742 7.18297L0.0263815 10.5742C-0.0394994 10.7924 0.01979 11.0296 0.181198 11.1902ZM9.9619 4.13978C9.96958 4.18888 9.98315 4.23702 10.0024 4.28306C10.0911 4.62083 10.1358 4.96915 10.1358 5.3243C10.1358 5.87606 10.0279 6.41216 9.81464 6.91615C9.60876 7.40284 9.31394 7.84013 8.93842 8.21565C8.5629 8.59117 8.12562 8.886 7.63892 9.09188C6.63094 9.51846 5.4665 9.51927 4.45605 9.09105C4.32264 9.03587 4.17523 9.02846 4.03606 9.06964L1.54494 9.82726L2.30257 7.33615C2.34457 7.1978 2.33633 7.04873 2.28033 6.91615C2.06704 6.41134 1.95916 5.87606 1.95916 5.3243C1.95916 4.77255 2.06704 4.23645 2.28033 3.73246C2.48621 3.24659 2.78021 2.81013 3.15655 2.43378C3.53372 2.05661 3.97018 1.76263 4.45605 1.55757C4.96168 1.34346 5.49614 1.23557 6.04789 1.23557C6.59965 1.23557 7.13493 1.34345 7.63892 1.55674C8.12562 1.76262 8.5629 2.05743 8.93842 2.43295C9.31394 2.80848 9.60876 3.24576 9.81464 3.73246C9.87114 3.86618 9.92024 4.00204 9.9619 4.13978ZM11.3602 5.69275C11.4997 5.90288 11.6195 6.12585 11.7187 6.36029C11.932 6.8651 12.0399 7.40039 12.0399 7.95214C12.0399 8.50389 11.932 9.03917 11.7179 9.54398C11.6627 9.67739 11.6545 9.82562 11.6965 9.96397L12.4541 12.4551L9.96297 11.6975C9.82462 11.6555 9.67474 11.6637 9.54298 11.7189C8.53335 12.1471 7.36891 12.1463 6.36011 11.7197C5.87341 11.5138 5.43612 11.219 5.0606 10.8435C4.94819 10.7311 4.84269 10.6119 4.74433 10.4865C5.85888 10.7649 7.05643 10.6795 8.12068 10.2291C8.75478 9.9615 9.32383 9.57774 9.81299 9.08857C10.3022 8.59941 10.6859 8.03037 10.9536 7.39626C11.1839 6.85233 11.3201 6.28076 11.3602 5.69275Z" fill="black"/>
</g>
</g>
<defs>
<clipPath id="clip0_156_4495">
<rect width="14" height="14" fill="white"/>
</clipPath>
</defs>
</svg>

<svg xmlns="http://www.w3.org/2000/svg" fill="none" viewBox="0 0 14 14"><g clip-path="url(#a)"><path fill="#000" fill-rule="evenodd" d="M.181 11.19a.62.62 0 0 0 .617.156l2.526-.768q.356.631.864 1.138c.489.49 1.058.873 1.692 1.141a5.36 5.36 0 0 0 3.931.086l3.392 1.03a.616.616 0 0 0 .77-.77l-1.03-3.39a5.33 5.33 0 0 0-.086-3.933 5.3 5.3 0 0 0-1.747-2.213 5.3 5.3 0 0 0-1.297-2.109A5.3 5.3 0 0 0 8.121.418a5.35 5.35 0 0 0-4.145 0A5.32 5.32 0 0 0 1.143 3.25a5.3 5.3 0 0 0-.42 2.072c0 .642.113 1.265.334 1.86l-1.03 3.391a.62.62 0 0 0 .154.616m9.78-7.05a.6.6 0 0 0 .041.143q.134.508.134 1.041a4.06 4.06 0 0 1-1.198 2.892c-.375.375-.812.67-1.3.876a4.1 4.1 0 0 1-3.182-.001.63.63 0 0 0-.42-.021l-2.491.757.758-2.49a.62.62 0 0 0-.023-.42 4.1 4.1 0 0 1-.32-1.593 4.06 4.06 0 0 1 1.197-2.89 4.1 4.1 0 0 1 1.3-.876 4.1 4.1 0 0 1 1.59-.322 4.06 4.06 0 0 1 2.891 1.197A4.1 4.1 0 0 1 9.962 4.14m1.4 1.553a4.08 4.08 0 0 1 .357 3.851.62.62 0 0 0-.021.42l.757 2.491-2.491-.758a.62.62 0 0 0-.42.022 4.1 4.1 0 0 1-3.183 0 4.1 4.1 0 0 1-1.616-1.232 5.37 5.37 0 0 0 3.377-.258 5.3 5.3 0 0 0 1.692-1.14 5.3 5.3 0 0 0 1.547-3.396" clip-rule="evenodd"/></g><defs><clipPath id="a"><path fill="#fff" d="M0 0h14v14H0z"/></clipPath></defs></svg>
